X: 16687
T: Happy Bloom Of Youth, The
R: reel
M: 4/4
K: Gmajor
efed ~B3A|GABG AGEF|~G3B dg~g2|dBAd BG~G2|
~e3d BdBA|G2BG AGEF|~G3B dgge|dBAd BG~G2||
faag fedf|edef ~g3f|eB~B2 gfed|BAGA BA~A2|
f2ag fedf|edef ~g3a|bgaf gfed|egfa ~g3f||

